Arcticons/scalable/apps/droid48sx.svg

<svg viewBox="0 0 48 48" xmlns="http://www.w3.org/2000/svg">
 <defs>
  <style>.a{fill:none;stroke:#fff;stroke-linecap:round;stroke-linejoin:round;}</style>
 </defs>
 <path class="a" d="m40.5 5.5h-33a2 2 0 0 0-2 2v33a2 2 0 0 0 2 2h33a2 2 0 0 0 2-2v-33a2 2 0 0 0-2-2z"/>
 <path class="a" d="m12.4 19.7h24.2a1.69 1.69 0 0 1 1.8 1.6v12.1a1.69 1.69 0 0 1-1.8 1.6h-24.2a1.69 1.69 0 0 1-1.8-1.6v-12a1.77 1.77 0 0 1 1.8-1.7z"/>
 <path class="a" d="M21.4,24.4H27a11.58,11.58,0,0,0-3.8,7.9"/>
 <path class="a" d="M12.6,24.1c0-1.2.3-2.3,1.4-2.4"/>
 <path class="a" d="M36.4,24.1c0-1.2-.3-2.3-1.4-2.4"/>
 <polyline class="a" points="24.4 9 24.4 16.5 28.2 16.5"/>
 <line class="a" x1="35.1" x2="38.9" y1="16.5" y2="16.5"/>
 <line class="a" x1="35.1" x2="38.9" y1="9" y2="9"/>
 <line class="a" x1="35.1" x2="37.6" y1="12.8" y2="12.8"/>
 <line class="a" x1="35.1" x2="35.1" y1="9" y2="16.5"/>
 <polyline class="a" points="33.1 9 30.6 16.5 28.2 9"/>
 <path class="a" d="M10.3,15.7a2.06,2.06,0,0,0,1.8.8h1.1a1.9,1.9,0,0,0,1.9-1.9h0a1.9,1.9,0,0,0-1.9-1.9H12a1.9,1.9,0,0,1-1.9-1.9h0A2,2,0,0,1,12,9h1.1a2,2,0,0,1,1.8.8"/>
 <path class="a" d="m17.2 14a2.5 2.5 0 1 0 5 0v-2.5a2.5 2.5 0 0 0-5 0z"/>
</svg>

<svg xmlns="http://www.w3.org/2000/svg" viewBox="0 0 48 48"><defs><style>.a{fill:none;stroke:#fff;stroke-linecap:round;stroke-linejoin:round;}</style></defs><path class="a" d="M40.5,5.5H7.5a2,2,0,0,0-2,2v33a2,2,0,0,0,2,2h33a2,2,0,0,0,2-2V7.5A2,2,0,0,0,40.5,5.5Z"/><path class="a" d="M12.4,19.7H36.6a1.69,1.69,0,0,1,1.8,1.6V33.4A1.69,1.69,0,0,1,36.6,35H12.4a1.69,1.69,0,0,1-1.8-1.6v-12A1.77,1.77,0,0,1,12.4,19.7Z"/><path class="a" d="M21.4,24.4H27a11.58,11.58,0,0,0-3.8,7.9"/><path class="a" d="M12.6,24.1c0-1.2.3-2.3,1.4-2.4"/><path class="a" d="M36.4,24.1c0-1.2-.3-2.3-1.4-2.4"/><polyline class="a" points="24.4 9 24.4 16.5 28.2 16.5"/><line class="a" x1="35.1" y1="16.5" x2="38.9" y2="16.5"/><line class="a" x1="35.1" y1="9" x2="38.9" y2="9"/><line class="a" x1="35.1" y1="12.8" x2="37.6" y2="12.8"/><line class="a" x1="35.1" y1="9" x2="35.1" y2="16.5"/><polyline class="a" points="33.1 9 30.6 16.5 28.2 9"/><path class="a" d="M10.3,15.7a2.06,2.06,0,0,0,1.8.8h1.1a1.9,1.9,0,0,0,1.9-1.9h0a1.9,1.9,0,0,0-1.9-1.9H12a1.9,1.9,0,0,1-1.9-1.9h0A2,2,0,0,1,12,9h1.1a2,2,0,0,1,1.8.8"/><path class="a" d="M17.2,14a2.5,2.5,0,1,0,5,0V11.5a2.5,2.5,0,0,0-5,0Z"/></svg>
